assets/image/cse-proof-plan.svg

<?xml version="1.0" encoding="UTF-8"?>
<svg width="705px" height="536px" viewBox="0 0 705 536" version="1.1" xmlns="http://www.w3.org/2000/svg" xmlns:xlink="http://www.w3.org/1999/xlink">
  <title>cse proof plan</title>
  <defs>
    <style type="text/css">
      @font-face {
        font-family: 'CBS-bold';
        src: url('../fonts/CBS-typografier/CBS_NEW_BOLD.woff'), url("../fonts/CBS-typografier/CBS_NEW_BOLD.ttf");
      }
      .line {
        stroke-dasharray: 1000;
        stroke-dashoffset: 1000;
      }
      .line.active {
        animation: dash linear alternate forwards;
        -webkit-animation: dash linear alternate forwards;
        -moz-animation: dash linear alternate forwards;
        -o-animation: dash linear alternate forwards;
      }
      @keyframes dash {
        from {
          stroke-dashoffset: 1000;
        }
        to {
          stroke-dashoffset: 0;
        }
      }
      .cloud1 {
        top: 80px;
        z-index: 100;
        -webkit-animation: move 380s linear infinite;
        -moz-animation: move 380s linear infinite;
        -o-animation: move 380s linear infinite;
        animation: move 380s linear infinite;
      }

      .cloud2 {
        top: 240px;
        z-index: 200;
        -webkit-animation: move 140s linear infinite backwards;
        -moz-animation: move 140s linear infinite backwards;
        -o-animation: move 140s linear infinite backwards;
        animation: move 140s linear infinite backwards;
      }

      @-webkit-keyframes move {
        from {
          -webkit-transform: translateX(0);
        }
        to {
          -webkit-transform: translateX(1150px);
        }
      }

      .bubble {
        opacity: 0;
      }
      .bubble.active {
        animation: bubble-light ease forwards;
        -webkit-animation: bubble-light ease forwards;
        -moz-animation: bubble-light ease forwards;
        -o-animation: bubble-light ease forwards;
      }
      @keyframes bubble-light {
        0% {
          fill: transparent;
          transform: "scale(0.5)";
        }
        20% {
          fill: #F26C65;
          transform: "scale(0.5)";
        }
        100% {
          fill: #595E7C;
        }
      }
    </style>
  </defs>
  <g id="Page-1" stroke="none" stroke-width="1" fill="none" fill-rule="evenodd">
    <g id="cse-proof-plan">
      <g id="sky">
        <path
          d="M132.0631,215.2322 C132.0631,208.9362 138.6141,203.8332 146.6961,203.8332 L192.7051,203.8332 C196.7461,203.8332 200.4051,202.5602 203.0531,200.4942 C205.7001,198.4312 207.3401,195.5822 207.3401,192.4342 C207.3401,186.1382 200.7841,181.0372 192.7051,181.0372 L182.4261,181.0372 C174.3411,181.0372 167.7921,175.9352 167.7921,169.6372 C167.7921,163.3402 174.3411,158.2392 182.4261,158.2392 L327.7641,158.2392 C335.8471,158.2392 342.3971,163.3402 342.3971,169.6372 C342.3971,172.7852 340.7611,175.6352 338.1111,177.6972 C335.4641,179.7612 331.8041,181.0372 327.7641,181.0372 L272.9901,181.0372 C264.9051,181.0372 258.3501,186.1382 258.3501,192.4342 C258.3501,198.7322 264.9051,203.8332 272.9901,203.8332 L292.0341,203.8332 C300.1181,203.8332 306.6681,208.9362 306.6681,215.2322 C306.6681,218.3782 305.0351,221.2292 302.3831,223.2922 C299.7351,225.3562 296.0741,226.6302 292.0341,226.6302 L146.6961,226.6302 C138.6141,226.6302 132.0631,221.5282 132.0631,215.2322"
          id="6"
          fill="#8ED2E7"
          class="cloud1"></path>
        <path
          d="M120.0421,116.9919 C120.0421,122.5389 115.5441,127.0329 109.9991,127.0329 L10.2781,127.0329 C4.7331,127.0329 0.2371,122.5389 0.2371,116.9919 C0.2371,114.2189 1.3621,111.7099 3.1791,109.8909 C4.9961,108.0739 7.5041,106.9499 10.2781,106.9499 L109.9991,106.9499 C115.5441,106.9499 120.0421,111.4459 120.0421,116.9919"
          id="5"
          fill="#8ED2E7"
          class="cloud2"></path>
        <path
          d="M65.5768,76.1277 C65.5768,71.2497 69.9568,67.2947 75.3608,67.2947 L106.1148,67.2947 C108.8158,67.2947 111.2628,66.3097 113.0338,64.7087 C114.8028,63.1097 115.8988,60.9007 115.8988,58.4627 C115.8988,53.5827 111.5148,49.6287 106.1148,49.6287 L99.2438,49.6287 C93.8408,49.6287 89.4618,45.6747 89.4618,40.7957 C89.4618,35.9167 93.8408,31.9617 99.2438,31.9617 L196.3978,31.9617 C201.8028,31.9617 206.1808,35.9167 206.1808,40.7957 C206.1808,43.2347 205.0868,45.4437 203.3158,47.0417 C201.5458,48.6427 199.0998,49.6287 196.3978,49.6287 L159.7838,49.6287 C154.3808,49.6287 149.9958,53.5827 149.9958,58.4627 C149.9958,63.3417 154.3808,67.2947 159.7838,67.2947 L172.5148,67.2947 C177.9178,67.2947 182.2978,71.2497 182.2978,76.1277 C182.2978,78.5677 181.2038,80.7757 179.4318,82.3757 C177.6608,83.9767 175.2158,84.9637 172.5148,84.9637 L75.3608,84.9637 C69.9568,84.9637 65.5768,81.0087 65.5768,76.1277"
          id="4"
          fill="#8ED2E7"
          class="cloud1"></path>
        <path
          d="M584.489,9.761 C584.489,15.154 580.118,19.526 574.724,19.526 L477.764,19.526 C472.372,19.526 468,15.154 468,9.761 C468,7.066 469.094,4.625 470.862,2.859 C472.63,1.091 475.068,0 477.764,0 L574.724,0 C580.118,0 584.489,4.369 584.489,9.761"
          id="3"
          fill="#8ED2E7"
          class="cloud2"></path>
        <path
          d="M704.217,194.565 C704.217,199.297 700.383,203.132 695.651,203.132 L610.567,203.132 C605.835,203.132 602,199.297 602,194.565 C602,192.201 602.96,190.059 604.51,188.508 C606.06,186.957 608.2,186 610.567,186 L695.651,186 C700.383,186 704.217,189.835 704.217,194.565"
          id="2"
          fill="#8ED2E7"
          class="cloud2"></path>
        <path
          d="M667.8658,112.5203 C667.8658,118.1653 662.7978,122.7423 656.5448,122.7423 L620.9568,122.7423 C617.8308,122.7423 614.9998,123.8823 612.9498,125.7343 C610.9028,127.5843 609.6348,130.1403 609.6348,132.9623 C609.6348,138.6093 614.7068,143.1843 620.9568,143.1843 L628.9068,143.1843 C635.1598,143.1843 640.2268,147.7603 640.2268,153.4063 C640.2268,159.0523 635.1598,163.6283 628.9068,163.6283 L516.4798,163.6283 C510.2258,163.6283 505.1598,159.0523 505.1598,153.4063 C505.1598,150.5833 506.4258,148.0283 508.4738,146.1783 C510.5228,144.3273 513.3538,143.1843 516.4798,143.1843 L558.8498,143.1843 C565.1028,143.1843 570.1768,138.6093 570.1768,132.9623 C570.1768,127.3163 565.1028,122.7423 558.8498,122.7423 L544.1178,122.7423 C537.8658,122.7423 532.7978,118.1653 532.7978,112.5203 C532.7978,109.6963 534.0628,107.1413 536.1138,105.2913 C538.1628,103.4383 540.9928,102.2953 544.1178,102.2953 L656.5448,102.2953 C662.7978,102.2953 667.8658,106.8733 667.8658,112.5203"
          id="1"
          fill="#8ED2E7"
          class="cloud1"></path>
        <path
          d="M454.9381,190.5701 C454.9381,254.6521 402.9941,306.6051 338.9051,306.6051 C274.8191,306.6051 222.8681,254.6521 222.8681,190.5701 C222.8681,126.4831 274.8191,74.5321 338.9051,74.5321 C402.9941,74.5321 454.9381,126.4831 454.9381,190.5701"
          id="sun"
          fill="#F26C65"></path>
      </g>
      <g id="mountain" transform="translate(86.000000, 134.000000)">
        <polygon id="Fill-18" fill="#61C090" points="263.651 189.9314 302.467 172.3624 349.518 340.4814"></polygon>
        <polygon id="Fill-20" fill="#9AD4B9" points="0.7301 401.6335 59.0391 281.8035 131.9591 249.0215 57.3441 401.6335"></polygon>
        <polygon id="Fill-22" fill="#418768" points="57.3443 401.6335 131.9593 249.0215 263.6513 189.9315 349.5183 340.4815 366.6313 401.6335"></polygon>
        <polygon id="Fill-24" fill="#7C83BF" points="59.0387 281.8034 166.6597 177.5894 131.9597 249.0214"></polygon>
        <polygon id="Fill-26" fill="#7C83BF" points="302.4674 172.362 349.5184 340.481 384.3944 401.633 448.2324 401.633 379.8354 259.459"></polygon>
        <polygon id="Fill-28" fill="#F7A7A0" points="166.6598 177.5896 252.9048 0.8266 379.8358 259.4586 302.4678 172.3616 263.6508 189.9316 224.5558 121.3856"></polygon>
        <polygon id="Fill-30" fill="#B0B4D3" points="379.8356 259.4587 448.2316 401.6337 506.1286 401.6337"></polygon>
        <polygon id="Fill-32" fill="#595E7C" points="349.5182 340.4812 366.6312 401.6332 384.3942 401.6332"></polygon>
        <polygon id="Fill-34" fill="#595E7C" points="131.9596 249.0212 166.6596 177.5892 224.5556 121.3852 263.6506 189.9312"></polygon>
      </g>
      <g class="item" id="gogrow-digital-growth-path" transform="translate(82.000000, 189.000000)">
        <text id="go-grow-digital-growth-path" font-family="CBS-bold" font-size="24" font-weight="bold" fill="#595E7C" class="text">
          <tspan x="132.088289" y="19">GO GROW</tspan>
          <tspan x="29.9682886" y="43">DIGITAL GROWTH PATH</tspan>
        </text>
        <path
          d="M343.921014,140.983296 C335.96239,135.628449 329.522257,132.668154 324.600614,132.10241 C318.7206,131.4265 294.161126,131.4265 250.922193,132.10241 C223.974581,131.975925 205.191622,131.799943 194.573316,131.574463 C182.808064,131.945377 180.344134,123.175341 181.373167,118.355993 C181.847238,115.875716 183.289181,112.405206 185.698996,107.944465 L227.209131,23.1667456"
          class="line"
          stroke="#FFFFFF"
          stroke-width="3"
          stroke-linecap="square"></path>
        <path
          d="M234.568,21.4988 C234.568,25.1168 231.635,28.0508 228.017,28.0508 C224.399,28.0508 221.466,25.1168 221.466,21.4988 C221.466,17.8848 224.399,14.9458 228.017,14.9458 C231.635,14.9458 234.568,17.8848 234.568,21.4988"
          id="dot"
          fill="#595E7C"
          class="bubble"></path>
      </g>
      <g class="item" id="cse-match-up" transform="translate(361.000000, 200.000000)">
        <text font-family="CBS-bold" font-size="24" font-weight="bold" fill="#595E7C" class="text">
          <tspan x="21" y="19">CSE MATCH UP</tspan>
        </text>
        <path d="M65.5,129.5 L7.5,11.5" class="line" stroke="#FFFFFF" stroke-width="3" stroke-linecap="square"></path>
        <path d="M13.4537,10.491 C13.4537,14.11 10.5167,17.044 6.9017,17.044 C3.2837,17.044 0.3497,14.11 0.3497,10.491 C0.3497,6.874 3.2837,3.937 6.9017,3.937 C10.5167,3.937 13.4537,6.874 13.4537,10.491" id="dot" fill="#595E7C" class="bubble"></path>
      </g>
      <g class="item" id="proof-of-business" transform="translate(418.000000, 318.000000)">
        <text font-family="CBS-bold" font-size="24" font-weight="bold" fill="#595E7C" class="text">
          <tspan x="22" y="19">PROOF OF BUSINESS</tspan>
        </text>
        <path d="M56.3052648,119.490284 C57.6715716,116.098853 57.2752475,112.301585 55.1162926,108.098482 C39.8172939,75.3586245 24.4611422,43.6985384 9.0478373,13.1182233" class="line" stroke="#FFFFFF" stroke-width="3" stroke-linecap="square"></path>
        <path d="M13.5318,10.6892 C13.5318,14.3132 10.6008,17.2412 6.9828,17.2412 C3.3628,17.2412 0.4278,14.3132 0.4278,10.6892 C0.4278,7.0712 3.3628,4.1402 6.9828,4.1402 C10.6008,4.1402 13.5318,7.0712 13.5318,10.6892" id="dot" fill="#595E7C" class="bubble"></path>
      </g>
      <g class="item" id="proof-of-concept" transform="translate(201.000000, 427.000000)">
        <text font-family="CBS-bold" font-size="24" font-weight="bold" fill="#595E7C" class="text">
          <tspan x="292" y="19">PROOF OF CONCEPT</tspan>
        </text>
        <path
          d="M0,22 C6.33822061,19.3053174 11.2122006,17.9579761 14.6219399,17.9579761 C142.672374,17.9579761 259.795474,18.2053958 261.634224,17.9579761 C267.781802,17.1307665 270.837763,16.5502436 273.093305,11.1004871"
          class="line"
          stroke="#FFFFFF"
          stroke-width="3"
          stroke-linecap="square"></path>
        <path
          d="M280.4313,11.8982 C280.4313,15.5162 277.4973,18.4512 273.8803,18.4512 C270.2623,18.4512 267.3273,15.5162 267.3273,11.8982 C267.3273,8.2822 270.2623,5.3502 273.8803,5.3502 C277.4973,5.3502 280.4313,8.2822 280.4313,11.8982"
          id="dot"
          fill="#595E7C"
          class="bubble"></path>
      </g>
      <g class="item" id="proof-of-idea" transform="translate(62.000000, 440.000000)">
        <text font-family="CBS-bold" font-size="24" font-weight="bold" fill="#595E7C" class="text">
          <tspan x="2.5967" y="19">PROOF OF IDEA</tspan>
        </text>
        <path d="M102,71.107417 C116.014555,40.7738654 124.449302,23.6634469 127.304241,19.7761616 C130.15918,15.8888763 133.402178,12.6301558 137.033235,10" class="line" stroke="#FFFFFF" stroke-width="3" stroke-linecap="square"></path>
        <path
          d="M143.4019,10.7497 C143.4019,14.3667 140.4649,17.2997 136.8489,17.2997 C133.2289,17.2997 130.2969,14.3667 130.2969,10.7497 C130.2969,7.1297 133.2289,4.1957 136.8489,4.1957 C140.4649,4.1957 143.4019,7.1297 143.4019,10.7497"
          id="dot"
          fill="#595E7C"
          class="bubble"></path>
      </g>
      <g class="item" id="ideation" transform="translate(157.000000, 502.000000)">
        <text font-family="CBS-bold" font-size="24" font-weight="bold" fill="#FFFFFF">
          <tspan x="20.3922886" y="19">IDEATION</tspan>
        </text>
        <path d="M13.2018,9.4792 C13.2018,13.0972 10.2688,16.0302 6.6508,16.0302 C3.0328,16.0302 0.0978,13.0972 0.0978,9.4792 C0.0978,5.8642 3.0328,2.9262 6.6508,2.9262 C10.2688,2.9262 13.2018,5.8642 13.2018,9.4792" id="dot" fill="#595E7C"></path>
      </g>
    </g>
  </g>
</svg>

<svg width="705" height="536" xmlns="http://www.w3.org/2000/svg"><defs><style>@keyframes bubble-light{0%{fill:transparent;transform:&quot;scale(0.5)&quot;}20%{fill:#f26c65;transform:&quot;scale(0.5)&quot;}}@font-face{font-family:&apos;CBS-bold&apos;;src:url(../fonts/CBS-typografier/CBS_NEW_BOLD.woff),url(../fonts/CBS-typografier/CBS_NEW_BOLD.ttf)}.line{stroke-dasharray:1000;stroke-dashoffset:1000}.cloud1{top:80px;z-index:100;-webkit-animation:move 380s linear infinite;-moz-animation:move 380s linear infinite;-o-animation:move 380s linear infinite;animation:move 380s linear infinite}.cloud2{top:240px;z-index:200;-webkit-animation:move 140s linear infinite backwards;-moz-animation:move 140s linear infinite backwards;-o-animation:move 140s linear infinite backwards;animation:move 140s linear infinite backwards}.bubble{opacity:0}</style></defs><g id="Page-1" fill="none" fill-rule="evenodd"><g id="cse-proof-plan"><g id="sky"><path d="M132.063 215.232c0-6.296 6.551-11.399 14.633-11.399h46.01c4.04 0 7.7-1.273 10.347-3.339 2.647-2.063 4.287-4.912 4.287-8.06 0-6.296-6.556-11.397-14.635-11.397h-10.279c-8.085 0-14.634-5.102-14.634-11.4 0-6.297 6.55-11.398 14.634-11.398h145.338c8.083 0 14.633 5.101 14.633 11.398 0 3.148-1.636 5.998-4.286 8.06-2.647 2.064-6.307 3.34-10.347 3.34H272.99c-8.085 0-14.64 5.101-14.64 11.397 0 6.298 6.555 11.4 14.64 11.4h19.044c8.084 0 14.634 5.102 14.634 11.398 0 3.146-1.633 5.997-4.285 8.06-2.648 2.064-6.309 3.338-10.349 3.338H146.696c-8.082 0-14.633-5.102-14.633-11.398" id="6" fill="#8ED2E7" class="cloud1"/><path d="M120.042 116.992c0 5.547-4.498 10.04-10.043 10.04H10.28c-5.546 0-10.042-4.493-10.042-10.04 0-2.773 1.125-5.282 2.942-7.101a10.005 10.005 0 0 1 7.1-2.941H110c5.545 0 10.043 4.496 10.043 10.042" id="5" fill="#8ED2E7" class="cloud2"/><path d="M65.577 76.128c0-4.878 4.38-8.833 9.784-8.833h30.754c2.7 0 5.148-.985 6.919-2.586 1.769-1.6 2.865-3.808 2.865-6.246 0-4.88-4.384-8.834-9.784-8.834h-6.871c-5.403 0-9.782-3.954-9.782-8.833 0-4.88 4.379-8.834 9.782-8.834h97.154c5.405 0 9.783 3.955 9.783 8.834 0 2.439-1.094 4.648-2.865 6.246-1.77 1.6-4.216 2.587-6.918 2.587h-36.614c-5.403 0-9.788 3.954-9.788 8.834 0 4.879 4.385 8.832 9.788 8.832h12.73c5.404 0 9.784 3.955 9.784 8.833 0 2.44-1.094 4.648-2.866 6.248-1.771 1.6-4.216 2.588-6.917 2.588H75.36c-5.404 0-9.784-3.955-9.784-8.836" id="4" fill="#8ED2E7" class="cloud1"/><path d="M584.489 9.761a9.764 9.764 0 0 1-9.765 9.765h-96.96c-5.392 0-9.764-4.372-9.764-9.765a9.726 9.726 0 0 1 2.862-6.902A9.725 9.725 0 0 1 477.764 0h96.96c5.394 0 9.765 4.369 9.765 9.761" id="3" fill="#8ED2E7" class="cloud2"/><path d="M704.217 194.565a8.565 8.565 0 0 1-8.566 8.567h-85.084a8.566 8.566 0 1 1 0-17.132h85.084a8.565 8.565 0 0 1 8.566 8.565" id="2" fill="#8ED2E7" class="cloud2"/><path d="M667.866 112.52c0 5.645-5.068 10.222-11.321 10.222h-35.588c-3.126 0-5.957 1.14-8.007 2.992-2.047 1.85-3.315 4.406-3.315 7.228 0 5.647 5.072 10.222 11.322 10.222h7.95c6.253 0 11.32 4.576 11.32 10.222s-5.067 10.222-11.32 10.222H516.48c-6.254 0-11.32-4.576-11.32-10.222 0-2.823 1.266-5.378 3.314-7.228 2.049-1.85 4.88-2.994 8.006-2.994h42.37c6.253 0 11.327-4.575 11.327-10.222 0-5.646-5.074-10.22-11.327-10.22h-14.732c-6.252 0-11.32-4.577-11.32-10.222 0-2.824 1.265-5.379 3.316-7.229 2.049-1.853 4.879-2.996 8.004-2.996h112.427c6.253 0 11.32 4.578 11.32 10.225" id="1" fill="#8ED2E7" class="cloud1"/><path d="M454.938 190.57c0 64.082-51.944 116.035-116.033 116.035-64.086 0-116.037-51.953-116.037-116.035 0-64.087 51.951-116.038 116.037-116.038 64.09 0 116.033 51.951 116.033 116.038" id="sun" fill="#F26C65"/></g><g id="mountain" transform="translate(86 134)"><path id="Fill-18" fill="#61C090" d="M263.651 189.931l38.816-17.569 47.051 168.12z"/><path id="Fill-20" fill="#9AD4B9" d="M.73 401.634l58.31-119.83 72.92-32.782-74.616 152.612z"/><path id="Fill-22" fill="#418768" d="M57.344 401.634L131.96 249.02l131.692-59.09 85.867 150.55 17.113 61.153z"/><path id="Fill-24" fill="#7C83BF" d="M59.039 281.803l107.62-104.214-34.7 71.432z"/><path id="Fill-26" fill="#7C83BF" d="M302.467 172.362l47.051 168.119 34.876 61.152h63.838l-68.397-142.174z"/><path id="Fill-28" fill="#F7A7A0" d="M166.66 177.59L252.905.827l126.93 258.632-77.367-87.097-38.817 17.57-39.095-68.546z"/><path id="Fill-30" fill="#B0B4D3" d="M379.836 259.459l68.396 142.175h57.897z"/><path id="Fill-32" fill="#595E7C" d="M349.518 340.481l17.113 61.152h17.763z"/><path id="Fill-34" fill="#595E7C" d="M131.96 249.021l34.7-71.432 57.896-56.204 39.095 68.546z"/></g><g class="item" id="gogrow-digital-growth-path" transform="translate(82 189)"><text id="go-grow-digital-growth-path" font-family="CBS-bold" font-size="24" font-weight="bold" fill="#595E7C" class="text"><tspan x="132.088" y="19">GO GROW</tspan> <tspan x="29.968" y="43">DIGITAL GROWTH PATH</tspan></text><path d="M343.921 140.983c-7.959-5.355-14.399-8.315-19.32-8.88-5.88-.677-30.44-.677-73.679 0-26.947-.127-45.73-.303-56.349-.529-11.765.371-14.229-8.399-13.2-13.218.474-2.48 1.916-5.95 4.326-10.412l41.51-84.777" class="line" stroke="#FFF" stroke-width="3" stroke-linecap="square"/><path d="M234.568 21.499a6.552 6.552 0 1 1-13.104 0 6.552 6.552 0 0 1 13.104 0" id="dot" fill="#595E7C" class="bubble"/></g><g class="item" id="cse-match-up" transform="translate(361 200)"><text font-family="CBS-bold" font-size="24" font-weight="bold" fill="#595E7C" class="text"><tspan x="21" y="19">CSE MATCH UP</tspan></text><path d="M65.5 129.5l-58-118" class="line" stroke="#FFF" stroke-width="3" stroke-linecap="square"/><path d="M13.454 10.491a6.553 6.553 0 1 1-13.102 0 6.553 6.553 0 0 1 13.102 0" id="dot" fill="#595E7C" class="bubble"/></g><g class="item" id="proof-of-business" transform="translate(418 318)"><text font-family="CBS-bold" font-size="24" font-weight="bold" fill="#595E7C" class="text"><tspan x="22" y="19">PROOF OF BUSINESS</tspan></text><path d="M56.305 119.49c1.367-3.391.97-7.188-1.189-11.392-15.299-32.74-30.655-64.4-46.068-94.98" class="line" stroke="#FFF" stroke-width="3" stroke-linecap="square"/><path d="M13.532 10.69a6.546 6.546 0 0 1-6.55 6.551 6.55 6.55 0 1 1 0-13.1 6.548 6.548 0 0 1 6.55 6.548" id="dot" fill="#595E7C" class="bubble"/></g><g class="item" id="proof-of-concept" transform="translate(201 427)"><text font-family="CBS-bold" font-size="24" font-weight="bold" fill="#595E7C" class="text"><tspan x="292" y="19">PROOF OF CONCEPT</tspan></text><path d="M0 22c6.338-2.695 11.212-4.042 14.622-4.042 128.05 0 245.173.247 247.012 0 6.148-.827 9.204-1.408 11.46-6.858" class="line" stroke="#FFF" stroke-width="3" stroke-linecap="square"/><path d="M280.431 11.898a6.553 6.553 0 0 1-6.55 6.553 6.554 6.554 0 0 1-6.554-6.553 6.551 6.551 0 0 1 6.553-6.548 6.55 6.55 0 0 1 6.551 6.548" id="dot" fill="#595E7C" class="bubble"/></g><g class="item" id="proof-of-idea" transform="translate(62 440)"><text font-family="CBS-bold" font-size="24" font-weight="bold" fill="#595E7C" class="text"><tspan x="2.597" y="19">PROOF OF IDEA</tspan></text><path d="M102 71.107c14.015-30.333 22.45-47.444 25.304-51.33 2.855-3.888 6.098-7.147 9.73-9.777" class="line" stroke="#FFF" stroke-width="3" stroke-linecap="square"/><path d="M143.402 10.75a6.554 6.554 0 0 1-6.553 6.55 6.552 6.552 0 1 1 6.553-6.55" id="dot" fill="#595E7C" class="bubble"/></g><g class="item" id="ideation" transform="translate(157 502)"><text font-family="CBS-bold" font-size="24" font-weight="bold" fill="#FFF"><tspan x="20.392" y="19">IDEATION</tspan></text><path d="M13.202 9.48a6.553 6.553 0 0 1-13.104 0A6.556 6.556 0 0 1 6.65 2.925 6.555 6.555 0 0 1 13.2 9.48" id="dot" fill="#595E7C"/></g></g></g></svg>
